optimized/20/solid/view-columns.svg

<svg xmlns="http://www.w3.org/2000/svg" viewBox="0 0 20 20">
  <path d="M14 17H16.75C17.9926 17 19 15.9926 19 14.75V5.25C19 4.00736 17.9926 3 16.75 3H14V17Z"/>
  <path d="M12.5 3H7.5V17H12.5V3Z"/>
  <path d="M3.25 3H6V17H3.25C2.00736 17 1 15.9926 1 14.75V5.25C1 4.00736 2.00736 3 3.25 3Z"/>
</svg>

<svg xmlns="http://www.w3.org/2000/svg" viewBox="0 0 20 20" fill="currentColor" aria-hidden="true">
  <path d="M14 17h2.75A2.25 2.25 0 0019 14.75v-9.5A2.25 2.25 0 0016.75 3H14v14zM12.5 3h-5v14h5V3zM3.25 3H6v14H3.25A2.25 2.25 0 011 14.75v-9.5A2.25 2.25 0 013.25 3z"/>
</svg>
